!!!COM:	Martini, Johannes
!!!CDT:	~1440///-~1497//
!!!OTL:	Vexilla regis
!!!AGN:	Motet
!!!SCT:	Mar2091
!!!SCA:	Mar2091
!!!voices:	3
**kern	**kern	**kern
*staff3	*staff2	*staff1
*Ivox	*Ivox	*Ivox
*I"Tenor	*I"Contra	*I"Superius
*I'T	*I'C	*I'S
*>[A,B]	*>[A,B]	*>[A,B]
*>A	*>A	*>A
*clefF4	*clefGv2	*clefG2
*k[]	*k[]	*k[]
*M2/1	*M2/1	*M2/1
*met(C|)	*met(C|)	*met(C|)
!!section: Vexilla regis
!!!OMD: Vexilla regis
=1-	=1-	=1-
0F	1c	0f
.	1d	.
=2	=2	=2
1.E	0e	1.g
2F\	.	2a/
=3	=3	=3
0G	1.d	0b-
.	[2g\	.
=4	=4	=4
0G	2g\]	0b-i
.	2f\	.
.	2d\	.
.	2e\	.
=5	=5	=5
1F	1f	1a
1G	1d	1g
=6	=6	=6
1A	1c	1f
[1G	1d	1g
=7	=7	=7
2G\]	1B	1g
4F\	.	.
4E\	.	.
2F\	2A/	[1a
[2D\	[2d\	.
=8	=8	=8
2D\]	2d\]	2a/]
2E\	2c\	2g/
2D\	1d	1f
[2d\	.	.
=9	=9	=9
2d\]	1G	0e
4c#i\	.	.
4B\	.	.
1c#i	1A	.
=10	=10	=10
2.d\	0D	0d
4c\	.	.
[1A	.	.
=11	=11	=11
1A]	2d\	0r
.	2e\	.
2.G\	2d\	.
.	[2g\	.
4A\	.	.
=12	=12	=12
0B-i	2g\]	1g
.	2e\	.
.	1d	1g
=13	=13	=13
1A	1c	1a
2A\	2r	2.f/
2A\	2F/	.
.	.	4e/
=14	=14	=14
2.B-i\	2.G/	1d
4A\	4F/	.
1F	1A	2r
.	.	2f/
=15	=15	=15
2G\	2B\	2e/
1A	1c	1f
4G\	4B\	4e/
4F\	4A/	4d/
=16	=16	=16
2E\	2G/	2c/
2D\	1A	1d
1E	.	.
.	2G/	2c#i/
=17	=17	=17
1D	2A/	0d
.	1F	.
1r	.	.
.	2D/	.
=18	=18	=18
1D	2.F/	0r
.	4G/	.
1D	2A/	.
.	[2d\	.
=19	=19	=19
0F	2d\]	1d
.	4c\	.
.	4B\	.
.	1A	1d
=20	=20	=20
2D\	2A/	1f
1d	2F/	.
.	1G	1d
4c\	.	.
4B\	.	.
=21	=21	=21
1A	2r	1c
.	2.A/	.
2r	.	1f
.	4B\	.
2A\	2c\	.
=22	=22	=22
2.B\	1d	2g/
.	.	2a/
4c\	.	.
1d	1G	1b-i
=23	=23	=23
2c\	2A/	2a/
2B\	2B\	2g/
2A\	2c\	2f/
2G\	[2d\	[2g/
=24	=24	=24
2B-i\	2d\]	2g/]
2A\	1c	1f
1G	.	.
.	2B\	2e/
=25	=25	=25
1F	1.c	1f
1A	.	1r
.	2d\	.
=26	=26	=26
1G	2.e\	0r
.	4d\	.
1A	4c\	.
.	4B\	.
.	[2A/	.
=27	=27	=27
2F\	2A/]	1a
2D\	1d	.
1E	.	1g
.	2c#i\	.
=28	=28	=28
1D	1d	1a
2d\	1D	2f/
[2d\	.	2d/
=29	=29	=29
2d\]	1A	1e
2c#i\	.	.
[1d	1D	2.d/
.	.	4e/
=30	=30	=30
1d]	2r	2f/
.	2.G/	1g
1G	.	.
.	4A/	.
.	2B\	4f/
.	.	4e/
=31	=31	=31
2F\	2A/	2f/
2G\	2B\	4e/
.	.	4d/
1A	1c	2c/
.	.	[2e/
=32	=32	=32
2G\	2B\	2e/]
2F\	1A	1d
1E	.	.
.	2G/	2c#i/
=33	=33	=33
0Dl	0Al	0dl
=34||	=34||	=34||
*>B	*>B	*>B
!!section: Quo vulneratus
!!!OMD: Quo vulneratus
0F	1c	0f
.	1d	.
=35	=35	=35
1E	1e	1g
1F	2c\	1a
.	[2d\	.
=36	=36	=36
1G	2d\]	1b-
.	1e	.
1A	.	2a/
.	2c\	[2f/
=37	=37	=37
1B-	1d	2f/]
.	.	2g/
2A\	2c\	2f/
[2F\	[2f\	[2a/
=38	=38	=38
4F\]	4f\]	4a/]
4G\	4e\	4g/
2A\	1c	1f
1G	.	.
.	2B\	2e/
=39	=39	=39
1F	1c	0f
1r	1d	.
=40	=40	=40
1G	2B\	0r
.	2c\	.
2F\	2d\	.
[2G\	[2e\	.
=41	=41	=41
4G\]	4e\]	1g
4F\	4d\	.
4E\	4c#i\	.
4D\	4B\	.
1E	1c#i	1g
=42	=42	=42
1.D	2d\	1f
.	2.A/	.
.	.	2f/
.	4B\	.
2C/	2c\	[2e/
=43	=43	=43
2D\	2B\	4e/]
.	.	4d/
2F\	1A	1d
1E	.	.
.	2G/	2c#i/
=44	=44	=44
1D	1A	0d
1G	2.B\	.
.	4c\	.
=45	=45	=45
1G	2d\	0r
.	1e	.
1A	.	.
.	4d\	.
.	4c\	.
=46	=46	=46
2G\	2B\	1g
2F\	1d	.
1E	.	1g
.	2c#i\	.
=47	=47	=47
1D	2d\	1a
.	2f\	.
1r	2e\	2g/
.	[2d\	2f/
=48	=48	=48
1A	2d\]	1e
.	2c#i\	.
1B-i	1d	1d
=49	=49	=49
1A	1c	2e/
.	.	1f
2F\	2A/	.
[2G\	[2B\	[2e/
=50	=50	=50
2G\]	4B\]	4e/]
.	4A/	4d/
2F\	1A	1d
1E	.	.
.	2G/	2c#i/
=51	=51	=51
1D	1A	0d
1r	1B	.
=52	=52	=52
1D	2A/	1r
.	2.d\	.
[1F	.	1d
.	4c\	.
.	[2A/	.
=53	=53	=53
2F\]	4A/]	0f
.	4G/	.
2E\	1c	.
1D	.	.
.	2B\	.
=54	=54	=54
1C	1c	1e
1F	[1A	1d
=55	=55	=55
1.A	2A/]	1c
.	2G/	.
.	1F	1f
2G\	.	.
=56	=56	=56
1.F	1.c	1.a
2G\	2B\	2g/
=57	=57	=57
2A\	2c\	1f
2B\	2d\	.
1c	1e	2e/
.	.	[2g/
=58	=58	=58
2B\	2d\	4g/]
.	.	4f/
2A\	1c	1f
1G	.	.
.	2B\	2e/
=59	=59	=59
1F	1.c	0f
1A	.	.
.	[2e\	.
=60	=60	=60
1G	2e\]	1r
.	2d\	.
2A\	2c\	[1a
[2F\	[2A/	.
=61	=61	=61
2F\]	2A/]	1a]
4E\	1d	.
4D\	.	.
1E	.	1g
.	2c#i\	.
=62	=62	=62
1D	1d	1a
[1D	[1A	2a/
.	.	[2f/
=63	=63	=63
1D]	2A/]	2f/]
.	2B\	4e/
.	.	4d/
1C	1c	1e
=64	=64	=64
1D	2F/	1f
.	1A	.
2F\	.	1d
2G\	2B\	.
=65	=65	=65
1A	2c\	2c/
.	4B\	2f/
.	4A/	.
2B\	2G/	2g/
2c\	2F/	[2a/
=66	=66	=66
1A	1c	4a/]
.	.	4g/
.	.	4f/
.	.	4e/
2D\	2d\	2f/
2G\	2B\	[2e/
=67	=67	=67
2A\	2c\	4e/]
.	.	4d/
2F\	1A	1d
1E	.	.
.	2G/	2c#i/
=68	=68	=68
0Dl	0Al	0dl
==	==	==
*-	*-	*-
!!!RDF**kern: l=long note in original notation
!!!RDF**kern: i=editorial accidental
!!!ENC:	Chris Gage 08-19-2014
!!!END:	2014/10/05/
!!!EED:	Jesse Rodin
!!!EEV:	2014/10/23/
!!!ONB:	Translated from MusicXML and edited on 2014/10/23/ by Craig Sapp
!!muse2ps: C^@{COM}^i2I150v85,85,150Q16
